X:304
T: Hongdeng zhaodeming
N: C1801
O: China, Gansu Zhenyuan
S: I, 106, 1)]
N: Han
R: Xiaodiao, Wanr huadeng]
M: 2/4
L: 1/16
K: F
A2AcA2c2 | d2d4f2 | c2f2dcAc | G8 |
c2A2f2dc | A2c2F4 | G2G2G2C2 | D4G2FG | D4z4

